static/img/menus/ico-air-fw.svg

<svg width="16" height="16" viewBox="0 0 16 16" fill="none" xmlns="http://www.w3.org/2000/svg">
<path d="M13.1349 13.4187C13.0731 13.4187 13.0126 13.3938 12.9692 13.3486L12.3254 12.6816C12.2368 12.5898 12.2391 12.4434 12.3309 12.3553C12.4233 12.2671 12.57 12.269 12.6572 12.3609L13.0177 12.7347L13.5134 10.8904L11.6525 11.3215L12.0129 11.6953C12.1015 11.7871 12.0993 11.9335 12.0074 12.0216C11.9156 12.1102 11.7688 12.1079 11.6811 12.0161L11.0372 11.3492C10.9791 11.2892 10.9583 11.2028 10.9818 11.1234C11.0054 11.0436 11.07 10.9827 11.1513 10.9637L13.7839 10.3545C13.8628 10.3361 13.9458 10.361 14.0017 10.4191C14.058 10.4778 14.0797 10.5613 14.0585 10.6398L13.3569 13.2493C13.3357 13.3296 13.2725 13.3924 13.1922 13.4127C13.1737 13.4169 13.1543 13.4187 13.1349 13.4187Z" fill="currentColor" stroke="currentColor" stroke-width="0.3"/>
<path d="M8.34006 14.3764C8.30265 14.3764 8.26529 14.376 8.22788 14.3755C6.67573 14.3483 5.19558 13.7511 4.06019 12.6942C3.96696 12.6074 3.96188 12.461 4.04865 12.3678C4.13542 12.2751 4.28173 12.269 4.37496 12.3563C5.42681 13.3357 6.79803 13.889 8.23619 13.914C9.73483 13.9338 11.1702 13.3957 12.2742 12.3798C12.3684 12.2945 12.5146 12.3004 12.6005 12.3932C12.6868 12.4869 12.6808 12.6332 12.5871 12.7195C11.4231 13.7903 9.91852 14.3764 8.34006 14.3764Z" fill="currentColor" stroke="currentColor" stroke-width="0.3"/>
<path d="M3.37123 12.0969C3.31077 12.0969 3.2517 12.0729 3.20785 12.0295L1.29847 10.1173C1.23939 10.0582 1.21677 9.97286 1.23939 9.89256C1.26154 9.81225 1.32524 9.7504 1.40554 9.7301L2.30508 9.50622C2.43016 9.47576 2.55385 9.55053 2.58477 9.67422C2.61523 9.7984 2.54 9.92345 2.41677 9.95391L1.91231 10.079L3.26185 11.4304L3.81985 9.60363L3.31493 9.72868C3.18939 9.75779 3.06616 9.68302 3.0357 9.56025C3.00523 9.43656 3.08047 9.31145 3.20416 9.28099L4.1037 9.0576C4.18262 9.03779 4.26985 9.06222 4.32616 9.12314C4.38339 9.18314 4.40416 9.26948 4.3797 9.34886L3.59093 11.9335C3.56693 12.011 3.50416 12.0705 3.42616 12.0904C3.40862 12.0945 3.3897 12.0969 3.37123 12.0969Z" fill="currentColor" stroke="currentColor" stroke-width="0.3"/>
<path d="M2.36687 9.8944C2.26118 9.8944 2.16564 9.82148 2.14164 9.71397C1.78857 8.13366 2.05349 6.49888 2.88703 5.11057C3.6878 3.77811 4.94641 2.79457 6.43118 2.34088C6.55441 2.30396 6.68226 2.37273 6.71964 2.49411C6.75657 2.61642 6.68826 2.74519 6.56641 2.78257C5.19103 3.20257 4.02472 4.11411 3.28303 5.34873C2.51041 6.63457 2.26534 8.14886 2.59257 9.61286C2.62026 9.73748 2.54226 9.86074 2.41764 9.88886C2.4001 9.89255 2.38303 9.8944 2.36687 9.8944Z" fill="currentColor" stroke="currentColor" stroke-width="0.3"/>
<path d="M9.33287 4.36518C9.26967 4.36518 9.20825 4.33887 9.16444 4.29179L7.32056 2.31687C7.26517 2.25779 7.24487 2.17379 7.26751 2.09579C7.28967 2.01779 7.35151 1.95733 7.42997 1.9361L10.0404 1.23825C10.1198 1.21748 10.2066 1.24056 10.2643 1.29964C10.3229 1.35918 10.3446 1.44502 10.3215 1.52487L10.0654 2.4161C10.0303 2.53887 9.90148 2.61087 9.78013 2.57441C9.65736 2.53933 9.58671 2.41102 9.62179 2.28918L9.76536 1.79025L7.92056 2.28318L9.22351 3.67933L9.36751 3.17995C9.4021 3.05672 9.5309 2.98472 9.65274 3.02164C9.77551 3.05672 9.8461 3.18502 9.81102 3.30687L9.5549 4.1981C9.53182 4.27841 9.46813 4.33979 9.38733 4.35918C9.36887 4.36287 9.3509 4.36518 9.33287 4.36518Z" fill="currentColor" stroke="currentColor" stroke-width="0.3"/>
<path d="M14.0359 9.49378C14.0216 9.49378 14.0073 9.49237 13.993 9.4896C13.8679 9.46652 13.7853 9.3456 13.8088 9.22055C14.0548 7.89821 13.8305 6.52008 13.1765 5.34085C12.4491 4.02869 11.2607 3.05946 9.82899 2.61085C9.70714 2.57254 9.63975 2.44331 9.6776 2.32146C9.71588 2.19962 9.84652 2.13223 9.96695 2.17008C11.5122 2.65469 12.7953 3.701 13.5804 5.11746C14.2856 6.39039 14.5284 7.87747 14.2625 9.30547C14.2417 9.41624 14.1444 9.49378 14.0359 9.49378Z" fill="currentColor" stroke="currentColor" stroke-width="0.3"/>
<mask id="path-7-inside-1_128_11" fill="white">
<path d="M8.50942 11.6007H7.67908C7.57065 11.6007 7.47692 11.5255 7.45385 11.4193L7.31723 10.7949C7.12523 10.739 6.94111 10.6624 6.76618 10.566L6.22803 10.9107C6.13665 10.9689 6.01757 10.9564 5.94049 10.8798L5.35388 10.2932C5.27726 10.2166 5.26434 10.097 5.32295 10.0057L5.66726 9.46751C5.5708 9.29163 5.49418 9.10751 5.4388 8.91643L4.8148 8.77981C4.70911 8.75674 4.63342 8.66301 4.63342 8.55458V7.72474C4.63342 7.61674 4.70865 7.52258 4.8148 7.49951L5.4388 7.3624C5.49418 7.17181 5.5708 6.9872 5.66726 6.81181L5.32295 6.27364C5.26434 6.18271 5.27726 6.06271 5.35388 5.9861L5.94049 5.39902C6.01757 5.3224 6.13665 5.30994 6.22803 5.3681L6.76665 5.71287C6.94203 5.61687 7.12615 5.54025 7.31723 5.4844L7.45385 4.8604C7.47692 4.75425 7.57065 4.67856 7.67908 4.67856H8.50942C8.61785 4.67856 8.71157 4.75379 8.73465 4.8604L8.87126 5.4844C9.06234 5.54025 9.24646 5.61687 9.42185 5.71287L9.96092 5.36856C10.0523 5.30948 10.1714 5.3224 10.2485 5.39948L10.8351 5.9861C10.9117 6.06271 10.9246 6.18271 10.866 6.27364L10.5212 6.81181C10.6177 6.98763 10.6943 7.17181 10.7502 7.36289L11.3746 7.49951C11.4803 7.52258 11.556 7.61624 11.556 7.72474V8.55458C11.556 8.66301 11.4803 8.75674 11.3742 8.77981L10.7497 8.91643C10.6943 9.10751 10.6177 9.29163 10.5212 9.46751L10.866 10.0057C10.9246 10.0966 10.9117 10.2161 10.8351 10.2932L10.2485 10.8807C10.1719 10.9578 10.0519 10.9698 9.96092 10.9116L9.42185 10.5664C9.24695 10.6624 9.06277 10.739 8.87126 10.7949L8.73465 11.4193C8.71157 11.5255 8.61785 11.6007 8.50942 11.6007ZM7.86462 11.1392H8.32338L8.45034 10.559C8.46923 10.4722 8.53661 10.4039 8.62295 10.3836C8.86431 10.3264 9.09415 10.2313 9.30554 10.1002C9.38123 10.0537 9.47631 10.0537 9.55157 10.1021L10.0528 10.4229L10.3768 10.0984L10.056 9.59766C10.008 9.52289 10.0076 9.42732 10.0542 9.35212C10.1857 9.13889 10.2812 8.90904 10.3371 8.66855C10.3574 8.58178 10.4257 8.51489 10.5129 8.49594L11.0935 8.36904V7.91071L10.5134 7.78381C10.4266 7.76486 10.3583 7.69748 10.338 7.6112C10.2812 7.37071 10.1857 7.14043 10.0542 6.92763C10.0071 6.85243 10.008 6.75687 10.056 6.6821L10.3768 6.18133L10.0528 5.85733L9.55157 6.17764C9.4768 6.22517 9.3808 6.2261 9.30603 6.17994C9.09323 6.0484 8.86338 5.95287 8.62295 5.8961C8.53618 5.87579 8.46923 5.80794 8.45034 5.72117L8.32338 5.14056H7.86462L7.73772 5.72117C7.71877 5.80794 7.65138 5.87579 7.56511 5.8961C7.32461 5.95287 7.09434 6.0484 6.88203 6.17994C6.80677 6.22656 6.7108 6.22517 6.63649 6.17764L6.13572 5.85733L5.81172 6.18179L6.13203 6.6821C6.18003 6.75687 6.18049 6.85243 6.13388 6.92763C6.00188 7.14135 5.9068 7.37071 5.85095 7.61071C5.83065 7.69748 5.76234 7.76443 5.67557 7.78332L5.09541 7.91071V8.36904L5.67557 8.49594C5.76234 8.51489 5.83065 8.58227 5.85095 8.66855C5.9068 8.90904 6.00234 9.13932 6.13388 9.3512C6.18095 9.42689 6.18003 9.5224 6.13203 9.59717L5.81172 10.098L6.13572 10.4224L6.63649 10.1017C6.71172 10.0537 6.80818 10.0537 6.88246 10.0998C7.09385 10.2309 7.32326 10.3264 7.56511 10.3836C7.65188 10.4039 7.71877 10.4718 7.73772 10.559L7.86462 11.1392ZM8.09403 9.75501C7.20326 9.75501 6.47865 9.0304 6.47865 8.13963C6.47865 7.24886 7.20326 6.52425 8.09403 6.52425C8.9848 6.52425 9.70941 7.24886 9.70941 8.13963C9.70941 8.26701 9.60603 8.3704 9.47865 8.3704C9.35126 8.3704 9.24788 8.26701 9.24788 8.13963C9.24788 7.5032 8.73046 6.98578 8.09403 6.98578C7.45754 6.98578 6.94018 7.5032 6.94018 8.13963C6.94018 8.77612 7.45754 9.29347 8.09403 9.29347C8.22141 9.29347 8.3248 9.39686 8.3248 9.52424C8.3248 9.65163 8.22141 9.75501 8.09403 9.75501Z"/>
</mask>
<path d="M8.50942 11.6007H7.67908C7.57065 11.6007 7.47692 11.5255 7.45385 11.4193L7.31723 10.7949C7.12523 10.739 6.94111 10.6624 6.76618 10.566L6.22803 10.9107C6.13665 10.9689 6.01757 10.9564 5.94049 10.8798L5.35388 10.2932C5.27726 10.2166 5.26434 10.097 5.32295 10.0057L5.66726 9.46751C5.5708 9.29163 5.49418 9.10751 5.4388 8.91643L4.8148 8.77981C4.70911 8.75674 4.63342 8.66301 4.63342 8.55458V7.72474C4.63342 7.61674 4.70865 7.52258 4.8148 7.49951L5.4388 7.3624C5.49418 7.17181 5.5708 6.9872 5.66726 6.81181L5.32295 6.27364C5.26434 6.18271 5.27726 6.06271 5.35388 5.9861L5.94049 5.39902C6.01757 5.3224 6.13665 5.30994 6.22803 5.3681L6.76665 5.71287C6.94203 5.61687 7.12615 5.54025 7.31723 5.4844L7.45385 4.8604C7.47692 4.75425 7.57065 4.67856 7.67908 4.67856H8.50942C8.61785 4.67856 8.71157 4.75379 8.73465 4.8604L8.87126 5.4844C9.06234 5.54025 9.24646 5.61687 9.42185 5.71287L9.96092 5.36856C10.0523 5.30948 10.1714 5.3224 10.2485 5.39948L10.8351 5.9861C10.9117 6.06271 10.9246 6.18271 10.866 6.27364L10.5212 6.81181C10.6177 6.98763 10.6943 7.17181 10.7502 7.36289L11.3746 7.49951C11.4803 7.52258 11.556 7.61624 11.556 7.72474V8.55458C11.556 8.66301 11.4803 8.75674 11.3742 8.77981L10.7497 8.91643C10.6943 9.10751 10.6177 9.29163 10.5212 9.46751L10.866 10.0057C10.9246 10.0966 10.9117 10.2161 10.8351 10.2932L10.2485 10.8807C10.1719 10.9578 10.0519 10.9698 9.96092 10.9116L9.42185 10.5664C9.24695 10.6624 9.06277 10.739 8.87126 10.7949L8.73465 11.4193C8.71157 11.5255 8.61785 11.6007 8.50942 11.6007ZM7.86462 11.1392H8.32338L8.45034 10.559C8.46923 10.4722 8.53661 10.4039 8.62295 10.3836C8.86431 10.3264 9.09415 10.2313 9.30554 10.1002C9.38123 10.0537 9.47631 10.0537 9.55157 10.1021L10.0528 10.4229L10.3768 10.0984L10.056 9.59766C10.008 9.52289 10.0076 9.42732 10.0542 9.35212C10.1857 9.13889 10.2812 8.90904 10.3371 8.66855C10.3574 8.58178 10.4257 8.51489 10.5129 8.49594L11.0935 8.36904V7.91071L10.5134 7.78381C10.4266 7.76486 10.3583 7.69748 10.338 7.6112C10.2812 7.37071 10.1857 7.14043 10.0542 6.92763C10.0071 6.85243 10.008 6.75687 10.056 6.6821L10.3768 6.18133L10.0528 5.85733L9.55157 6.17764C9.4768 6.22517 9.3808 6.2261 9.30603 6.17994C9.09323 6.0484 8.86338 5.95287 8.62295 5.8961C8.53618 5.87579 8.46923 5.80794 8.45034 5.72117L8.32338 5.14056H7.86462L7.73772 5.72117C7.71877 5.80794 7.65138 5.87579 7.56511 5.8961C7.32461 5.95287 7.09434 6.0484 6.88203 6.17994C6.80677 6.22656 6.7108 6.22517 6.63649 6.17764L6.13572 5.85733L5.81172 6.18179L6.13203 6.6821C6.18003 6.75687 6.18049 6.85243 6.13388 6.92763C6.00188 7.14135 5.9068 7.37071 5.85095 7.61071C5.83065 7.69748 5.76234 7.76443 5.67557 7.78332L5.09541 7.91071V8.36904L5.67557 8.49594C5.76234 8.51489 5.83065 8.58227 5.85095 8.66855C5.9068 8.90904 6.00234 9.13932 6.13388 9.3512C6.18095 9.42689 6.18003 9.5224 6.13203 9.59717L5.81172 10.098L6.13572 10.4224L6.63649 10.1017C6.71172 10.0537 6.80818 10.0537 6.88246 10.0998C7.09385 10.2309 7.32326 10.3264 7.56511 10.3836C7.65188 10.4039 7.71877 10.4718 7.73772 10.559L7.86462 11.1392ZM8.09403 9.75501C7.20326 9.75501 6.47865 9.0304 6.47865 8.13963C6.47865 7.24886 7.20326 6.52425 8.09403 6.52425C8.9848 6.52425 9.70941 7.24886 9.70941 8.13963C9.70941 8.26701 9.60603 8.3704 9.47865 8.3704C9.35126 8.3704 9.24788 8.26701 9.24788 8.13963C9.24788 7.5032 8.73046 6.98578 8.09403 6.98578C7.45754 6.98578 6.94018 7.5032 6.94018 8.13963C6.94018 8.77612 7.45754 9.29347 8.09403 9.29347C8.22141 9.29347 8.3248 9.39686 8.3248 9.52424C8.3248 9.65163 8.22141 9.75501 8.09403 9.75501Z" fill="currentColor" stroke="currentColor" stroke-width="2" mask="url(#path-7-inside-1_128_11)"/>
<path d="M9.01649 9.29385C9.12805 9.29385 9.22154 9.21442 9.24306 9.10928L9.24794 9.06241C9.24778 8.9351 9.1439 8.83194 9.01649 8.83194M9.01649 9.29385V8.83194M9.01649 9.29385L8.9706 9.28897C8.86528 9.26758 8.78603 9.17404 8.78603 9.06241C8.78619 8.9352 8.88929 8.8321 9.01649 8.83194M9.01649 9.29385V8.83194" fill="currentColor" stroke="currentColor"/>
</svg>

<svg xmlns="http://www.w3.org/2000/svg" width="16" height="16" fill="none" viewBox="0 0 16 16"><path fill="currentColor" stroke="currentColor" stroke-width=".3" d="M13.135 13.419a.23.23 0 0 1-.166-.07l-.644-.667a.23.23 0 1 1 .332-.321l.36.374.496-1.845-1.86.431.36.374a.23.23 0 1 1-.332.321l-.644-.667a.23.23 0 0 1 .114-.385l2.633-.61a.23.23 0 0 1 .274.286l-.701 2.61a.23.23 0 0 1-.222.169Z"/><path fill="currentColor" stroke="currentColor" stroke-width=".3" d="M8.34 14.376h-.112a6.27 6.27 0 0 1-4.168-1.682.231.231 0 0 1 .315-.338 5.82 5.82 0 0 0 7.9.024.231.231 0 0 1 .313.34 6.25 6.25 0 0 1-4.248 1.656ZM3.371 12.097a.23.23 0 0 1-.163-.067l-1.91-1.913a.231.231 0 0 1 .107-.387l.9-.224a.23.23 0 1 1 .112.448l-.505.125 1.35 1.351.558-1.826-.505.125a.23.23 0 1 1-.11-.448l.899-.223a.23.23 0 0 1 .222.065.23.23 0 0 1 .054.226l-.79 2.585a.23.23 0 0 1-.219.163Z"/><path fill="currentColor" stroke="currentColor" stroke-width=".3" d="M2.367 9.894a.23.23 0 0 1-.225-.18 6.26 6.26 0 0 1 .745-4.603 6.27 6.27 0 0 1 3.544-2.77.231.231 0 0 1 .135.442 5.8 5.8 0 0 0-3.283 2.566 5.8 5.8 0 0 0-.69 4.264.23.23 0 0 1-.226.281ZM9.333 4.365a.23.23 0 0 1-.169-.073L7.321 2.317a.231.231 0 0 1 .11-.38l2.61-.699c.079-.02.166.003.223.062a.23.23 0 0 1 .058.225l-.257.891a.23.23 0 0 1-.444-.127l.144-.499-1.844.493L9.224 3.68l.144-.499a.23.23 0 0 1 .444.127l-.257.891a.23.23 0 0 1-.222.167Z"/><path fill="currentColor" stroke="currentColor" stroke-width=".3" d="M14.036 9.494a.23.23 0 0 1-.227-.273 5.82 5.82 0 0 0-.633-3.88A5.8 5.8 0 0 0 9.83 2.61a.231.231 0 0 1 .138-.44 6.25 6.25 0 0 1 3.613 2.946 6.3 6.3 0 0 1 .682 4.188.23.23 0 0 1-.226.189Z"/><mask id="a" fill="#fff"><path d="M8.51 11.6h-.83a.23.23 0 0 1-.226-.18l-.137-.625a2.7 2.7 0 0 1-.55-.229l-.539.345a.23.23 0 0 1-.288-.031l-.586-.587a.23.23 0 0 1-.031-.287l.344-.538a2.7 2.7 0 0 1-.228-.552l-.624-.136a.23.23 0 0 1-.182-.225v-.83a.23.23 0 0 1 .182-.225l.624-.138q.083-.286.228-.55l-.344-.538a.23.23 0 0 1 .03-.288L5.94 5.4a.23.23 0 0 1 .288-.03l.539.344q.264-.144.55-.229l.137-.624a.23.23 0 0 1 .225-.181h.83a.23.23 0 0 1 .226.181l.136.624q.287.085.55.229l.54-.344a.23.23 0 0 1 .287.03l.587.587a.23.23 0 0 1 .031.288l-.345.538q.145.265.23.55l.624.138a.23.23 0 0 1 .181.225v.83a.23.23 0 0 1-.182.225l-.624.136a2.7 2.7 0 0 1-.229.552l.345.538a.23.23 0 0 1-.03.287l-.588.588a.23.23 0 0 1-.287.03l-.54-.345q-.261.144-.55.229l-.136.624a.23.23 0 0 1-.226.182m-.645-.46h.458l.127-.581a.23.23 0 0 1 .173-.175q.363-.087.683-.284a.23.23 0 0 1 .246.002l.5.32.325-.324-.321-.5a.23.23 0 0 1-.002-.246q.199-.321.283-.683a.23.23 0 0 1 .176-.173l.58-.127v-.458l-.58-.127a.23.23 0 0 1-.175-.173 2.3 2.3 0 0 0-.284-.683.23.23 0 0 1 .002-.246l.32-.5-.323-.325-.501.32a.23.23 0 0 1-.246.003 2.3 2.3 0 0 0-.683-.284.23.23 0 0 1-.173-.175l-.127-.58h-.458l-.127.58a.23.23 0 0 1-.173.175q-.362.086-.683.284a.23.23 0 0 1-.246-.002l-.5-.32-.324.324.32.5a.23.23 0 0 1 .002.246 2.3 2.3 0 0 0-.283.683.23.23 0 0 1-.175.172l-.58.128v.458l.58.127a.23.23 0 0 1 .175.173q.084.362.283.682a.23.23 0 0 1-.002.246l-.32.501.324.324.5-.32a.23.23 0 0 1 .246-.002q.319.196.683.284a.23.23 0 0 1 .173.175zm.229-1.385c-.89 0-1.615-.725-1.615-1.615 0-.891.724-1.616 1.615-1.616.89 0 1.615.725 1.615 1.616a.23.23 0 0 1-.461 0 1.155 1.155 0 0 0-2.308 0c0 .636.518 1.153 1.154 1.153a.23.23 0 0 1 0 .462"/></mask><path fill="currentColor" stroke="currentColor" stroke-width="2" d="M8.51 11.6h-.83a.23.23 0 0 1-.226-.18l-.137-.625a2.7 2.7 0 0 1-.55-.229l-.539.345a.23.23 0 0 1-.288-.031l-.586-.587a.23.23 0 0 1-.031-.287l.344-.538a2.7 2.7 0 0 1-.228-.552l-.624-.136a.23.23 0 0 1-.182-.225v-.83a.23.23 0 0 1 .182-.225l.624-.138q.083-.286.228-.55l-.344-.538a.23.23 0 0 1 .03-.288L5.94 5.4a.23.23 0 0 1 .288-.03l.539.344q.264-.144.55-.229l.137-.624a.23.23 0 0 1 .225-.181h.83a.23.23 0 0 1 .226.181l.136.624q.287.085.55.229l.54-.344a.23.23 0 0 1 .287.03l.587.587a.23.23 0 0 1 .031.288l-.345.538q.145.265.23.55l.624.138a.23.23 0 0 1 .181.225v.83a.23.23 0 0 1-.182.225l-.624.136a2.7 2.7 0 0 1-.229.552l.345.538a.23.23 0 0 1-.03.287l-.588.588a.23.23 0 0 1-.287.03l-.54-.345q-.261.144-.55.229l-.136.624a.23.23 0 0 1-.226.182Zm-.645-.46h.458l.127-.581a.23.23 0 0 1 .173-.175q.363-.087.683-.284a.23.23 0 0 1 .246.002l.5.32.325-.324-.321-.5a.23.23 0 0 1-.002-.246q.199-.321.283-.683a.23.23 0 0 1 .176-.173l.58-.127v-.458l-.58-.127a.23.23 0 0 1-.175-.173 2.3 2.3 0 0 0-.284-.683.23.23 0 0 1 .002-.246l.32-.5-.323-.325-.501.32a.23.23 0 0 1-.246.003 2.3 2.3 0 0 0-.683-.284.23.23 0 0 1-.173-.175l-.127-.58h-.458l-.127.58a.23.23 0 0 1-.173.175q-.362.086-.683.284a.23.23 0 0 1-.246-.002l-.5-.32-.324.324.32.5a.23.23 0 0 1 .002.246 2.3 2.3 0 0 0-.283.683.23.23 0 0 1-.175.172l-.58.128v.458l.58.127a.23.23 0 0 1 .175.173q.084.362.283.682a.23.23 0 0 1-.002.246l-.32.501.324.324.5-.32a.23.23 0 0 1 .246-.002q.319.196.683.284a.23.23 0 0 1 .173.175zm.229-1.385c-.89 0-1.615-.725-1.615-1.615 0-.891.724-1.616 1.615-1.616.89 0 1.615.725 1.615 1.616a.23.23 0 0 1-.461 0 1.155 1.155 0 0 0-2.308 0c0 .636.518 1.153 1.154 1.153a.23.23 0 0 1 0 .462Z" mask="url(#a)"/><path fill="currentColor" stroke="currentColor" d="M9.016 9.294c.112 0 .206-.08.227-.185l.005-.047a.23.23 0 0 0-.232-.23m0 .462v-.462m0 .462-.045-.005a.231.231 0 0 1 .045-.457m0 .462v-.462"/></svg>
